X:79
T:Royal Sovereign. Ru1.079, The
%%VWML:RutherfordVol1-2248-p40-0p40
Z:Transcription by Village Music Project, Steve Mansfield July 2015
F:http://www.village-music-project.org.uk/
F:http://www.vwml.org/record/RutherfordVol1/2248/p40
N: * This note needs to be a dotted crotchet on the repeat to give the correct length of bar.
M:6/8
Q:3/8=110
K:D
f| eAA ecc|fBB Baf|eAA ecc|eAA ecc|
fdd ecB|fBB Baf|eAA ecc|eAA "*"A2 :|
|: e3 (f/e/f/^g/)a|^g2B Bcd|e3 (f/e/f/^g/)a|ece aeg|
fdf ece|fBB Baf|e3 (f/e/f/^g/)a|e2A Acd |]
W:
W: Cast off below the 2d Couple and Lead through the 3d.
W: Couple .|  Cast up to the top and Lead through the
W: 2d. Couple :|  Cross over two Couple .|.  Lead up to
W: the top foot it and Cast off :||:  Hay Contrary sides .||
W: Hay on your own sides .||.  foot it Corners and turn
W: .||. foot it the other Corners & turn your own partners
T:Duke's Reel. Ru1.080, The
L:1/8
R:Reel
B:RUTHERFORD Complete Collection of 200 Country Dances Vol.1; London: David & John Rutherford 1756.
Z:vmp.Mike Hicken 2015 www.village-music-project.org.uk
M:C|
Q:1/2=80
K:G
G/G/G BG AF TA2|G/G/G BG cABG| G/G/G BG AF TA2|Bggd B2G2 :|
|: Ggd=f AF TA2| Ggde =fgag|=fefc AF TA2|Gggd TB2G2 |]
W:
W: The first and 2d. Couple turns their partne(r)
W: half round and then sides half round .|  th(en)
W: turn partners again then sides into your
W: own places Cross over and half figure .|.
W: Right hand and Left :|
|:
